Gruvbox-Material-Icons/actions/22/kt-upnp.svg

<svg xmlns="http://www.w3.org/2000/svg" width="22" height="22" version="1.1" viewBox="0 0 22 22">
 <defs>
  <style id="current-color-scheme" type="text/css">
   .ColorScheme-Text { color:#ebdbb2; } .ColorScheme-Highlight { color:#458588; }
  </style>
 </defs>
 <path style="fill:currentColor" class="ColorScheme-Text" d="m 13,3 c 0.004,0.003 0,1.3332999 0,2.0000001 H 9.9999999 V 10 H 13 v 2 L 18.5,7.5 Z M 8.9999999,9 3.5,13.5 9,18 C 8.996,17.997 9,16.6667 9,16 h 3 V 11 H 9 Z"/>
</svg>

<svg width="22" height="22" version="1.1" viewBox="0 0 22 22" xmlns="http://www.w3.org/2000/svg">
  <defs>
    <style id="current-color-scheme" type="text/css">.ColorScheme-Text { color:#ebdbb2; } .ColorScheme-Highlight { color:#458588; }</style>
  </defs>
  <path class="ColorScheme-Text" d="m13 3c4e-3 3e-3 0 1.333 0 2h-3v5h3v2l5.5-4.5zm-4 6-5.5 4.5 5.5 4.5c-4e-3 -3e-3 0-1.333 0-2h3v-5h-3z" fill="currentColor"/>
</svg>
